img/logo-2.svg

<svg width="125" height="62" viewBox="0 0 125 62" fill="none" xmlns="http://www.w3.org/2000/svg">
<path d="M2.07195 0.520102C2.11918 0.573708 2.1664 0.634014 2.22038 0.68762C10.2286 8.98981 18.23 17.292 26.2382 25.5942C26.3191 25.6746 26.3798 25.7751 26.481 25.8153C26.5552 25.7818 26.5418 25.7349 26.5418 25.6947C26.5418 25.5875 26.5418 25.4803 26.5418 25.3731C26.5418 20.3676 26.5418 15.3689 26.5418 10.3635C26.5418 9.90781 26.481 10.0418 26.8049 9.72019C29.7936 6.75177 32.7823 3.77665 35.7711 0.808233C35.852 0.727824 35.9195 0.627314 36.0544 0.567007C36.0747 0.627314 36.1016 0.674218 36.1016 0.721124C36.1084 0.814934 36.1016 0.915445 36.1016 1.00925C36.1016 13.8076 36.1016 26.6127 36.1016 39.4111C36.1016 39.5451 36.1219 39.6858 36.0747 39.8332C36.0274 39.8466 35.987 39.86 35.9465 39.86C35.8588 39.86 35.7711 39.86 35.6901 39.86C32.9577 39.86 30.2321 39.86 27.4998 39.86C27.068 39.86 27.1894 39.9069 26.8116 39.5987C26.7509 39.5518 26.7037 39.4982 26.6497 39.4446C23.4383 36.255 20.2337 33.0588 17.0223 29.8693C16.1453 28.9982 15.2682 28.1271 14.3912 27.256C11.227 24.1133 8.0629 20.964 4.89876 17.8214C3.5427 16.4745 2.18664 15.121 0.830582 13.7741C0.77661 13.7205 0.722637 13.6669 0.668664 13.6133C0.594452 13.5463 0.56072 13.4592 0.56072 13.3587C0.56072 13.1979 0.56072 13.0371 0.56072 12.8762C0.56072 11.7103 0.560719 10.5444 0.553973 9.37175C0.553973 7.99811 0.547226 6.63116 0.54048 5.25751C0.54048 4.35962 0.526986 3.46172 0.52024 2.55712C0.52024 1.98756 0.506747 1.4247 0.5 0.855138C0.5 0.734525 0.513493 0.620613 0.52024 0.5C1.03973 0.5 1.55921 0.5 2.07195 0.5V0.520102Z" fill="#77BBE8"/>
<path d="M0.574219 17.8622C0.70915 17.9828 0.790109 18.0565 0.864321 18.1235C1.55247 18.807 2.23388 19.4904 2.92202 20.1672C5.24285 22.4723 7.55692 24.7706 9.87774 27.0757C10.1881 27.3839 10.1409 27.2901 10.1409 27.7189C10.1409 31.6255 10.1409 35.5387 10.1409 39.4452C10.1409 39.5725 10.1409 39.6998 10.1341 39.8405C10.0599 39.8539 9.99918 39.8673 9.93846 39.874C9.86424 39.874 9.79003 39.874 9.70907 39.874C6.80805 39.874 3.90702 39.874 1.006 39.874C0.877814 39.874 0.74963 39.8941 0.607952 39.8405C0.594458 39.7802 0.580965 39.7199 0.574219 39.6596C0.574219 39.539 0.574219 39.4251 0.574219 39.3045C0.574219 32.3089 0.574219 25.3201 0.574219 18.3245C0.574219 18.1972 0.574219 18.0699 0.574219 17.8555V17.8622Z" fill="#77BBE8"/>
<path d="M51.3147 27.2829C51.3484 27.8122 51.3349 39.572 51.3012 39.8467C51.2472 39.8534 51.1865 39.8668 51.1258 39.8735C51.0516 39.8735 50.9774 39.8735 50.8964 39.8735C47.9819 39.8735 45.0674 39.8735 42.1596 39.8735C42.0516 39.8735 41.9437 39.8735 41.8357 39.8668C41.7413 39.8601 41.6806 39.7998 41.6738 39.6993C41.6738 39.6256 41.6738 39.5519 41.6738 39.4715C41.6738 32.3486 41.6738 25.2258 41.6738 18.1029V17.7812C41.748 17.8215 41.7953 17.8349 41.8357 17.8617C41.9032 17.9153 41.9572 17.9823 42.0179 18.0426C45.0404 21.0445 48.0628 24.0397 51.0786 27.0416C51.1595 27.1221 51.2405 27.2092 51.3147 27.2829Z" fill="#005C7E"/>
<path d="M70.6109 23.0815C69.97 23.7181 69.3358 24.3547 68.6949 24.9912C68.054 25.6278 67.4198 26.2644 66.7789 26.9076C66.1379 27.5442 65.5038 28.1808 64.8628 28.8241C64.2219 29.4606 63.5877 30.1039 62.9468 30.7405C62.3059 31.377 61.6785 32.0203 61.0241 32.6502C60.9566 32.5966 60.8959 32.5631 60.8554 32.5162C54.4394 26.1304 48.0302 19.7446 41.6074 13.3521C41.6277 9.12394 41.6479 4.90918 41.6681 0.687728C41.6681 0.660925 41.6884 0.627422 41.7086 0.580517C41.8098 0.580517 41.9178 0.580517 42.0257 0.580517C42.3361 0.580517 42.6531 0.580517 42.9635 0.580517C43.1187 0.580517 43.2333 0.627422 43.3345 0.734633C43.6584 1.07637 43.989 1.41811 44.3195 1.75984C49.7573 7.41525 55.2018 13.0707 60.6395 18.7194C60.7609 18.84 60.8756 18.9673 61.0106 19.1013C61.105 19.0075 61.1792 18.9405 61.2534 18.8601C64.7482 15.2082 68.2361 11.563 71.7309 7.91111C73.9842 5.55915 76.2308 3.2072 78.4842 0.855246C78.7945 0.533611 78.6731 0.580517 79.1184 0.580517C79.4085 0.580517 79.6986 0.580517 79.9954 0.580517C80.0629 0.580517 80.1236 0.580517 80.1911 0.593918C80.272 0.60732 80.326 0.660925 80.3327 0.748035C80.3327 0.835144 80.3327 0.922254 80.3327 1.00266C80.3327 2.2892 80.3327 3.57574 80.3327 4.85558C80.3327 8.28635 80.3327 11.7104 80.3327 15.1412C80.3327 20.6559 80.3327 26.1706 80.3395 31.692C80.3395 34.2851 80.3395 36.8783 80.3395 39.4715C80.3395 39.5988 80.3327 39.7261 80.326 39.8534C80.1843 39.8936 80.0494 39.8802 79.9279 39.8802C77.8702 39.8802 75.8058 39.8802 73.7481 39.8802C72.8643 39.8802 71.9805 39.8802 71.0967 39.8802C70.6919 39.8802 70.6851 39.8802 70.6851 39.4648C70.6851 34.1444 70.6851 28.8174 70.6851 23.497C70.6851 23.3697 70.6851 23.2491 70.6784 23.1217C70.6582 23.115 70.6312 23.1016 70.6109 23.0949V23.0815Z" fill="#005C7E"/>
<path d="M85.4125 39.8068C85.3923 39.7398 85.3788 39.713 85.3788 39.6795C85.3788 36.5838 85.3788 33.4881 85.3788 30.3923C85.3788 30.3655 85.3923 30.332 85.4058 30.2918C85.4462 30.2851 85.4867 30.2717 85.5272 30.2717C85.6486 30.2717 85.7633 30.2717 85.8848 30.2717C94.5676 30.2717 103.257 30.2717 111.94 30.2717C112.136 30.2717 112.331 30.2583 112.52 30.2315C113.606 30.0841 114.733 28.9584 114.585 27.5646C114.45 26.2915 113.424 25.4941 112.527 25.3802C112.291 25.3534 112.055 25.3333 111.819 25.3333C108.452 25.3333 105.086 25.3333 101.719 25.3333C100.262 25.3333 98.8045 25.3534 97.3472 25.3266C93.6028 25.2596 90.5197 23.7787 88.1044 20.951C86.6809 19.2892 85.8241 17.3527 85.4665 15.2085C85.2911 14.1699 85.2708 13.1179 85.372 12.0726C85.5677 10.0958 86.2019 8.26654 87.3218 6.61816C89.0152 4.1255 91.3225 2.45702 94.237 1.61943C94.4664 1.55242 94.6958 1.49211 94.9252 1.43851C95.0061 1.4184 95.0938 1.405 95.1681 1.3916C95.1883 1.3916 95.195 1.3983 95.2085 1.405C95.2153 1.405 95.2288 1.4117 95.2355 1.4184C98.3052 4.46053 101.375 7.50266 104.445 10.5448C104.485 10.585 104.519 10.6252 104.553 10.6654C104.553 10.6721 104.553 10.6855 104.559 10.6989C104.505 10.7793 104.424 10.7391 104.357 10.7391C102.9 10.7391 101.442 10.7391 99.9851 10.7391C99.1418 10.7391 98.3052 10.7391 97.4619 10.7391C96.9492 10.7391 96.4836 10.8932 96.0653 11.1881C95.3907 11.6638 94.9994 12.3138 94.9859 13.138C94.9589 14.4781 95.9169 15.4296 97.0301 15.6239C97.219 15.6574 97.4147 15.6708 97.6103 15.6708C98.8922 15.6708 100.181 15.6708 101.463 15.6708C105.119 15.6708 108.776 15.6708 112.433 15.6708C114.045 15.6708 115.61 15.9054 117.128 16.4414C118.747 17.011 120.178 17.8821 121.385 19.1083C122.66 20.3948 123.504 21.936 124.023 23.6514C124.239 24.3684 124.381 25.1055 124.462 25.8559C124.489 26.1441 124.495 26.4322 124.495 26.7203C124.495 27.3301 124.495 27.9399 124.475 28.5496C124.448 29.28 124.313 29.997 124.131 30.7006C123.038 34.9689 119.861 38.1853 115.576 39.3512C114.47 39.6527 113.337 39.7934 112.19 39.7867C111.198 39.7867 110.206 39.7867 109.214 39.7867H85.4058L85.4125 39.8068Z" fill="#2DB8C5"/>
<path d="M29.935 50.3438H40.3652V53.0709H36.8637V61.3798H33.4297V53.0709H29.9282V50.3438H29.935Z" fill="#005C7E"/>
<path d="M55.4502 59.5564H51.5507L51.011 61.379H47.5095L51.6857 50.3496H55.43L59.6061 61.379H56.0102L55.457 59.5564H55.4502ZM54.7418 57.1709L53.514 53.2041L52.2996 57.1709H54.7418Z" fill="#005C7E"/>
<path d="M67.6954 50.3438H71.4735L73.4367 53.7343L75.3528 50.3438H79.0971L75.6429 55.6842L79.4277 61.3731H75.5686L73.376 57.8285L71.1834 61.3731H67.3513L71.1834 55.6239L67.7021 50.3438H67.6954Z" fill="#005C7E"/>
<path d="M88.4148 50.3438H91.8555V61.3731H88.4148V50.3438Z" fill="#005C7E"/>
<mask id="mask0_4063_2814" style="mask-type:luminance" maskUnits="userSpaceOnUse" x="99" y="0" width="26" height="11">
<path d="M99.8276 0.620903C100.138 0.580699 118.489 0.560597 124.176 0.587399C124.27 0.587399 124.365 0.5874 124.48 0.600801C124.486 0.68121 124.5 0.748217 124.5 0.815224C124.5 0.895633 124.5 0.976041 124.5 1.05645C124.5 4.14548 124.5 7.22781 124.5 10.3168C124.5 10.4509 124.5 10.5849 124.493 10.739C124.412 10.7524 124.351 10.7591 124.291 10.7658C124.216 10.7658 124.142 10.7658 124.061 10.7658C119.291 10.7658 114.528 10.7658 109.759 10.7658C109.3 10.7658 109.421 10.8127 109.118 10.4844C106.102 7.29482 103.093 4.09858 100.077 0.902334C100.003 0.821925 99.9288 0.741516 99.8276 0.620903Z" fill="white"/>
</mask>
<g mask="url(#mask0_4063_2814)">
<path d="M104.482 5.67969H99.3557V10.7716H104.482V5.67969Z" fill="#2DB8C5"/>
<path d="M109.61 0.586914H104.483V5.67885H109.61V0.586914Z" fill="#2DB8C5"/>
<path d="M114.738 5.67969H109.611V10.7716H114.738V5.67969Z" fill="#2DB8C5"/>
<path d="M119.872 0.586914H114.745V5.67885H119.872V0.586914Z" fill="#2DB8C5"/>
<path d="M125 5.67969H119.873V10.7716H125V5.67969Z" fill="#2DB8C5"/>
</g>
</svg>

<svg width="125" height="62" fill="none" xmlns="http://www.w3.org/2000/svg"><path d="M2.072.52c.047.054.094.114.148.168C10.23 8.99 18.23 17.292 26.238 25.594c.081.08.142.181.243.221.074-.033.06-.08.06-.12V10.363c0-.455-.06-.321.264-.643 2.989-2.968 5.977-5.943 8.966-8.912.081-.08.148-.18.283-.241.02.06.048.107.048.154.006.094 0 .194 0 .288v38.402c0 .134.02.275-.027.422-.048.014-.088.027-.129.027H27.5c-.432 0-.31.047-.688-.261-.061-.047-.108-.1-.162-.154-3.212-3.19-6.416-6.386-9.628-9.576l-2.63-2.613c-3.165-3.143-6.33-6.292-9.493-9.435-1.356-1.347-2.712-2.7-4.068-4.047l-.162-.16a.328.328 0 0 1-.108-.255v-.483c0-1.166 0-2.332-.007-3.504 0-1.374-.007-2.74-.014-4.114 0-.898-.013-1.796-.02-2.7C.52 1.987.507 1.424.5.854.5.735.513.621.52.5h1.552v.02ZM.574 17.862c.135.12.216.195.29.262.688.683 1.37 1.366 2.058 2.043l6.956 6.909c.31.308.263.214.263.643v11.726c0 .127 0 .255-.007.395-.074.014-.135.027-.196.034H1.006c-.128 0-.256.02-.398-.034a1.703 1.703 0 0 1-.034-.18V17.855v.007Z" fill="#77BBE8"/><path d="M51.315 27.283c.033.53.02 12.289-.014 12.564-.054.006-.114.02-.175.026H42.16c-.108 0-.216 0-.324-.006-.095-.007-.155-.067-.162-.168V17.782c.074.04.121.053.162.08.067.053.121.12.182.18 3.022 3.002 6.045 5.998 9.06 9 .081.08.162.167.237.24ZM70.61 23.081c-.64.637-1.274 1.274-1.915 1.91-.641.637-1.275 1.273-1.916 1.917-.641.636-1.275 1.273-1.916 1.916-.641.637-1.275 1.28-1.916 1.916-.641.637-1.269 1.28-1.923 1.91-.067-.053-.128-.087-.169-.134C54.44 26.13 48.03 19.745 41.607 13.352L41.668.688c0-.027.02-.06.04-.107h1.256c.155 0 .27.046.37.154.324.341.655.683.985 1.025 5.438 5.655 10.883 11.31 16.32 16.96.122.12.237.247.372.381.094-.093.168-.16.242-.24L71.731 7.91c2.253-2.352 4.5-4.704 6.753-7.056.31-.321.19-.274.634-.274h.877c.068 0 .129 0 .196.013a.16.16 0 0 1 .142.154v14.393c0 5.515 0 11.03.007 16.551v7.78c0 .127-.007.254-.014.381-.142.04-.277.027-.398.027h-8.831c-.405 0-.412 0-.412-.415V23.497c0-.127 0-.248-.007-.375l-.067-.027v-.014Z" fill="#005C7E"/><path d="M85.412 39.807c-.02-.067-.033-.094-.033-.128v-9.287c0-.026.013-.06.027-.1.04-.007.08-.02.121-.02h26.413c.196 0 .391-.014.58-.04 1.086-.148 2.213-1.274 2.065-2.667-.135-1.274-1.161-2.07-2.058-2.185a6.28 6.28 0 0 0-.708-.047h-10.1c-1.457 0-2.914.02-4.372-.006-3.744-.067-6.827-1.548-9.243-4.376-1.423-1.662-2.28-3.598-2.638-5.742a11.91 11.91 0 0 1-.094-3.136c.196-1.977.83-3.806 1.95-5.455 1.693-2.493 4-4.161 6.915-4.999.23-.067.459-.127.688-.18.081-.02.169-.034.243-.047.02 0 .027.006.04.013.007 0 .02.007.028.013l9.209 9.127c.04.04.074.08.108.12 0 .007 0 .02.006.034-.054.08-.135.04-.202.04h-6.895c-.513 0-.978.154-1.397.45-.674.475-1.066 1.125-1.08 1.949-.026 1.34.932 2.292 2.045 2.486.189.033.385.047.58.047h14.823c1.612 0 3.177.234 4.695.77 1.619.57 3.05 1.441 4.257 2.667 1.275 1.287 2.119 2.828 2.638 4.543.216.717.358 1.454.439 2.205.027.288.033.576.033.864 0 .61 0 1.22-.02 1.83-.027.73-.162 1.447-.344 2.15-1.093 4.269-4.27 7.485-8.555 8.651a12.553 12.553 0 0 1-3.386.436H85.406l.006.02Z" fill="#2DB8C5"/><path d="M29.935 50.344h10.43v2.727h-3.501v8.309H33.43v-8.31h-3.502v-2.726h.007ZM55.45 59.556h-3.9l-.539 1.823h-3.502l4.177-11.03h3.744l4.176 11.03H56.01l-.553-1.823h-.007Zm-.708-2.385-1.228-3.967-1.214 3.967h2.442ZM67.695 50.344h3.779l1.963 3.39 1.916-3.39h3.744l-3.454 5.34 3.785 5.69h-3.86l-2.192-3.546-2.193 3.545h-3.832l3.832-5.75-3.48-5.28h-.008ZM88.415 50.344h3.44v11.03h-3.44v-11.03Z" fill="#005C7E"/><mask id="a" style="mask-type:luminance" maskUnits="userSpaceOnUse" x="99" y="0" width="26" height="11"><path d="M99.828.62c.31-.04 18.661-.06 24.348-.033.094 0 .189 0 .304.014.006.08.02.147.02.214v9.501c0 .135 0 .269-.007.423-.081.013-.142.02-.202.027h-14.532c-.459 0-.338.047-.641-.282-3.016-3.19-6.025-6.385-9.041-9.582-.074-.08-.148-.16-.25-.281Z" fill="#fff"/></mask><g mask="url(#a)" fill="#2DB8C5"><path d="M104.482 5.68h-5.126v5.092h5.126V5.68ZM109.61.587h-5.127v5.092h5.127V.587ZM114.738 5.68h-5.127v5.092h5.127V5.68ZM119.872.587h-5.127v5.092h5.127V.587ZM125 5.68h-5.127v5.092H125V5.68Z"/></g></svg>
